X:1
T:Now Thank We All Our God
T:Text: Martin Rinkart, 1636; tr. Catherine Winkworth, 1863, alt. Tune: Johann Crüger, 1647; harm. based on Felix Mendelssohn's Lobgesang, Opus 52, 1840
T:67 67 66 66 NUN DANKET www.hymnary.org/text/now_thank_we_all_our_god
T:This hymn is in the public domain. You may freely use this score for personal and congregational worship. If you reproduce the score, please credit Hymnary.org as the source. 
T:Now Thank We All Our God
T:This hymn is in the public domain. You may freely use this score for personal and congregational worship. If you reproduce the score, please credit Hymnary.org as the source. 
Z:This hymn is in the public domain. You may freely use this score for personal and congregational worship. If you reproduce the score, please credit Hymnary.org as the source.
%%score ( 1 2 ) ( 3 4 5 )
L:1/8
M:4/4
K:Eb
V:1 treble nm="SOPRANO ALTO" snm="S. A."
V:2 treble 
V:3 bass nm="TENOR BASS" snm="T. B."
V:4 bass 
V:5 bass 
V:1
"^1""^2""^3" B2 | B2 B2 c2 c2 | B6 B2 | A2 G2 F2 G2 | F4 E2 | B2 | B2 B2 c2 c2 | B6 B2 | %8
w: Now|thank we all our|God with|heart and hands and|voic- es,|who|won- drous things has|done, in|
w: O|may this boun- teous|God through|all our life be|near us,|with|ev- er joy- ful|hearts and|
w: All|praise and thanks to|God the|Fa- ther now be|giv- en,|the|Son and Spir- it|blest, who|
 A2 G2 F2 G2 | F4 E2 | F2 | F2 F2 G2 B2 | F6 F2 | G=A B2 c2 A2 | B6 |1 B2 | c2 B2 A2 G2 | A6 G2 | %18
w: whom his world re-|joic- es;|who|from our moth- ers'|arms has|blessed _ us on our|way|with|count- less gifts of|love, and|
w: bless- ed peace to|cheer us,|to|keep us in his|grace, and|guide * us when per-|plexed,|and|free us from all|ills of|
w: reign in high- est|heav- en—|the|one e- ter- nal|God, whom|heaven _ and earth a-|dore;|for|thus it was, is|now, and|
 F2 E2 E2 D2 | E6 x2 |] %20
w: still is ours to-|day.|
w: this world in the|next.|
w: shall be ev- er-|more.|
V:2
 E2 | E2 E2 E2 CD | E6 E_D | C2 E2 =D2 E2 | (E2 D2) E2 | E2 | E2 E2 E2 ED | E6 E2 | E2 ED C2 D2 | %9
 C2 D2 E2 | D2 | E2 DF F2 E2 | D6 B,2 | B,C D2 E2 D2 | D6 |1 D2 | C2 C2 C2 =E2 | F6 ED | %18
 C2 G,A, B,2 B,A, | G,6 x2 |] %20
V:3
 x2 | x8 | x8 | x8 | x6 | x2 | x8 | x8 | x8 | x6 | x2 | x8 | x8 | x8 | x6 |1 x2 | x8 | x8 | x8 | %19
 E,,6 x2 |] %20
V:4
 G,2 | G,2 B,2 A,2 E,F, | G,6 G,2 | A,2 B,2 B,A, G,2 | A,4 G,2 | G,2 | G,2 G,2 A,2 A,2 | G,6 G,2 | %8
 A,2 B,2 C3 =B, | (C2 B,A,) G,2 | B,2 | C2 B,=A, B,2 B,2 | B,6 B,2 | G,2 F,B, B,=A, G,^F, | G,6 |1 %15
 G,2 | G,2 F,G, A,2 B,2 | A,6 B,2 | C2 E,F, G,2 F,2 | E,6 x2 |] %20
V:5
 E,2 | E,2 G,2 A,2 A,,2 | E,6 E,2 | F,2 G,A, B,2 E,2 | B,,4 E,2 | E,2 | E,2 E,_D, C,B,, A,,2 | %7
 E,6 E,=D, | C,2 B,,2 A,,2 G,,2 | (A,,2 B,,2) E,2 | B,,2 | =A,,2 B,,2 E,F, G,=A, | B,6 D,2 | %13
 E,2 D,2 C,2 D,2 | G,,6 |1 G,F, | =E,2 D,E, F,2 C,2 | F,,6 G,,2 | A,,2 C,2 B,,2 B,,2 | E,6 x2 |] %20

